X: 38260
T: St Patrick's Cathedral
R: barndance
M: 4/4
K: Gmajor
[L:1/4]d2 B B|c B A2|B F G A/B/|A G F2|E F/G/ A B/c/|
d F G c|B A/G/ TF>G|G4:|:B2 e B|c B/A/ d2|
B G E c|B2 A2|d g >d c/B/|c a >c B/A/|B g d c|
TB> -B/A//B//c// A G/F/|E c D Tf/e//f//|g d e/d/ c|B A/G/ TF> G|G4:|

